X:087 
T:Jenny's Folly (reel)
S:J.Wade < A. Kelly
F:file ID: cre.4/087jenn_f
B:CRE4.185 (Oinsiulacht Shinead)
L:1/8
Q:180
M:4/4
R:reel
K:G
"D modal"
EG|ADD2 AGEF|GcAG EFGE|AD~D2 cDBD|(3ABc AG c2 Bc|
AD (3DED AGEF|Gc c2 d2 cd|ecdB cAGE|(3ABc GE D2:|
K:C
"D dorian"
zG|:ADcD =BDAG|cdec dcAG|cdec dcAG|gece d2de|
fage dcAG|cEAG EAGE|ecd=B cAGE|AcGE D2:|

%%%

